packages/ui-icons/src/Basic/24/Corporate_24.svg

<svg xmlns="http://www.w3.org/2000/svg" viewBox="0 0 32 32"><path d="M25.9 18v-8h-5.1a5 5 0 0 0-9.8 0H5.9v16h20Zm-10-10a3 3 0 0 1 2.83 2h-5.66a3 3 0 0 1 2.83-2Zm8 16h-16v-6h5.17a3 3 0 0 0 5.66 0h5.17Zm0-8h-7v1a1 1 0 0 1-2 0v-1h-7v-4h16Z"/></svg>

<svg id="Ready" xmlns="http://www.w3.org/2000/svg" viewBox="0 0 32 32"><title>Megaicons_work_24_1.8_cp</title><path d="M25.9,18V10h-5.1A5,5,0,0,0,11,10H5.9V26h20ZM15.9,8a3,3,0,0,1,2.83,2H13.07A3,3,0,0,1,15.9,8Zm8,16H7.9V18h5.17a3,3,0,0,0,5.66,0H23.9Zm0-8h-7v1a1,1,0,0,1-2,0V16h-7V12h16Z"/></svg>
